X: 1396
T: The Four Courts
M:C|
L:1/8
N:"No. 1" "collected by Ennis"
B:O'Neill's 1396
Z:"Transcribed by Bob Safranek, rjs@gsp.org"
K:D
dB   | ADFD  ADGB  | ADFD  G2 GB      | ADFD   ADGF       | ((3EFE) cA G2 FG |
       ADFD  ADGB  | ADFD  G2 FG      | A^GA=c BAB^c      |      dB=cA G2    ||
(AG) | F2 AF cFAG  | F2 cA G2 AG      | F2 AF  cFAc       |      dB=cA G2 AG |
       F2 AF cFAG  | F2 cA G2 ((3ABc) | dfdc   dc ((3ABc) |      dB=cA G2    ||
(dB) | A2 Ac B2 Bd | ABAF  G2 dB      | A2 Ac  B2 Bc      |      dB=cA G2 dB |
       AFAc  BGBd  | ABAF  G2 ((3ABc) | dfec   dc ((3ABc) |      dB=cA G2    |]


